!!!SOCIAL_FUNCTION:	songs connected with war and hunting
!!!PDT:	1932
!!!OTL: No_34_The_Slender-legged_Animals.krn
!!!REG: Wisconsin
!!!LANG: Non-Tone
!!!LING_GROUP: Algonquin
**kern
*staff1
=1-
*clefF4
*k[f#c#g#d#]
*M2/4
8r
8BB/
12C#/L
12C#/
12B/J
=2
4B\
8.G#\L
16E\Jk
=3||
*M3/4
2F#\
8r
8G#\
=4||
*M2/4
8G#\L
8F#\J
8E\L
8F#\J
=5
4F#\
8.E/L
16BB/Jk
=6||
*M3/4
2E\
8r
8F#\
=7||
*M2/4
8F#\L
8E\J
8C#/L
8F#/J
=8
4E\
8C#/L
8BB/J
=9
8C#/L
8BB/J
8BB/L
8BB/J
=10
2BB/
=11
8BB/L
8BB/J
8BB/
8r
==
*-
